X: 18428
T: Hunting The Hare
R: jig
M: 6/8
K: Dmajor
d2 D FGA|B2 e cBc|d2 D FGA|Bec d2 z|
d2 D FGA|B2 e cBc|d2 D FGA|Bec d2 z|
fed fed|fed fed|ecd ecd|egf He3|
d2 D FGA|B2 e cBc|d2 D FGA|Bec d2 z|

